!!!OTL: Der verwundete Knab (2-33) S. 105
!!!id: P0906
**kern
*clefG2
*k[]
*G:
{8d
=1
8g
8b
8a
=2
8g
8g
16ee
16ee
=3
8.dd
16cc
16b
16dd
=4
4a}
8r
=5
{8dd
8dd
8dd
=6
8.b
16cc
8dd}
=7
{16ee
16dd
16cc
16b
16a
16g
=8
8.a
16b
16cc
16ee
=9
16dd
16cc
8b
8a
=10
4g}
==
*-
!!!minrhy: 16
!!!meters: 3/8 ]  ZZ[3
!!!cut: Der verwundete Knab (2-33) S. 105
!!!reg: Lothringen
!!!trd: PINCK, Louis: Verklingende Weisen, Bd 2, Metz 1928
!!!rhy1: X_  X_X_X_  X_X_XX  X_.XXX  X__0_
!!!rhy2: X_X_X_  X_.XX_
!!!key: P0906  16  G 3/8 ]  ZZ[3
!!!mod: SECHSTONSKALA DUR ?]  AMBITUS[9
!!!kad: 251
!!!akz: 1152_53_6251_
!!!fot: 'a__b__c__
!!!for: 'a__b__c__
!!!fok: '^a_V__Sd_
!! PHRAS[VORWIEGEND VOLLTAKTIG]
!!!fkt: Liebe, Klage, Tod?
!! LOTH VKL
!! PR[15] 2K[10] 2G[23] 3K[8] 3G[0] 4A[5] 4Ü[0] 5A[0] 6K[0] 6G[0]
!! 7K[0] 7G[0] 8A[0] MEHR[0] SI[45] ABS[40] SR[33] SP[13]
!! ST[9] 2k[10] 2g[20] 3k[5] 3g[0] 4d[5] 4ü[0] 5d[0] 6k[0] 6g[0]
!! 7k[0] 7g[0] 8d[0] mehr[0] si[40] dm[+5] sr[30] sp[10]
!! 1F[42] 2F[53] 3F[5] 4F[0] LF[0] 2P[0] 3P[0] 4P[0] TRI[0] DF[3] AB[43]
!! TF[0] U3K[0] U3[0] U4[0] U4Ü[0] U5[5] U6K[0] U6[0] U7K[0] U7[5]
!! N1[22] N2K[0] N2[27] N3K[0] N3[22] N4[12] N4Ü[0] N5[7] N6K[0] N6[0]
!!!n7k: 0] N7[0] O1[0] O2K[0] O2[0] O3K[0] O3[0] HÖ[0
